X: 030355
T: Conlon's (B)
S: De Danann
Z: B.Black
R: jig
M: 6/8
L: 1/8
K: G
g/e/ | d2 B BAB | GEF G2 A | Bee dBA | Bef gfe |
d2 B BAB | GEF G2 A | Bee dBA | BGF G2 :|
d | gag fed | Bdd def | gag fed | Bee e2 f |
gag fed | Bdd def | gfg aga | baf g2 :|
